X: 4164
T: SLEEPY MAGGY
%R: reel
B: James Kerr "Merry Melodies" v.4 p.19 #164
Z: 2016 John Chambers <jc:trillian.mit.edu>
M: C|
L: 1/8
K: Bm
|:\
fB B/B/B (fB)de | fB B/B/B (eA)ce |\
fB B/B/B (fB)de | f^gaf eAce ::\
fBbB fBde | fBbB eAce |
fBbB fBde | f^gaf eAce ::\
fefa fdde | fefa eAce |\
fefa fdde | f^gaf eAce :|

%%sep 1 1 500
%%sep 1 1 500

